X: 173
T: Quis dabit pacem
N: Derived from Rue2018-Quis_dabit_pacem.krn
C: Pierre de la Rue
%%abc-version 2.0
%%abcx-abcm2ps-target-version 5.9.1 (29 Sep 2008)
%%abc-creator hum2abc beta
%%abcx-conversion-date 2019/02/17 08:01:17
%%abc-edited-by Jesse Rodin
%%abc-edited-by Chris Gage 01-07-2013
%%abcx-initial-encoding-date 2013/07/21/
%%humdrum-veritas 936763667
%%humdrum-veritas-data 1076845350
%%linebreak <none>
%%barnumbers 0
L: 1/4
M: 2/1
Q: 1/2=120
%%staves [1 2 3 4]
V: 1 clef=treble
V: 2 clef=treble-8
V: 3 clef=treble-8
V: 4 clef=bass
K: C
[V:1] z8 | 
[V:2] z8 | 
[V:3] z4B4- | 
[V:4] E,8- | 
[V:1] z8 | 
[V:2] z8 | 
[V:3] B4c4 | 
[V:4] E,8 | 
[V:1] z8 | 
[V:2] z8 | 
[V:3] A4B4- | 
[V:4] F,4D,4 | 
[V:1] B8 | 
[V:2] z4e4- | 
[V:3] B2E2E4- | 
[V:4] E,6A,,2 | 
[V:1] c4A4 | 
[V:2] e4f4 | 
[V:3] E4z4 | 
[V:4] A,,4z4 | 
[V:1] B6E2 | 
[V:2] d4e4- | 
[V:3] z8 | 
[V:4] z8 | 
[V:1] E8 | 
[V:2] e2A2A4- | 
[V:3] z4c4- | 
[V:4] z8 | 
[V:1] z4G4- | 
[V:2] A4e4- | 
[V:3] c4c4 | 
[V:4] z4E,4- | 
[V:1] G2G2G4 | 
[V:2] e2e2e4 | 
[V:3] B8 | 
[V:4] E,2E,2E,4 | 
[V:1] A4c4 | 
[V:2] c8 | 
[V:3] A6G2 | 
[V:4] F,6E,2 | 
[V:1] B2A4GF | 
[V:2] d2e2d4 | 
[V:3] F2E2F4 | 
[V:4] D,2C,2D,4 | 
[V:1] A4E4 | 
[V:2] c8 | 
[V:3] E8 | 
[V:4] A,,4z2A,,2 | 
[V:1] z8 | 
[V:2] z2c2e4- | 
[V:3] z4E4 | 
[V:4] C,4C,4 | 
[V:1] z4E4 | 
[V:2] e4e4 | 
[V:3] G4G4 | 
[V:4] C,8 | 
[V:1] G4G4 | 
[V:2] e8 | 
[V:3] G3AB2c2- | 
[V:4] E,8- | 
[V:1] G8 | 
[V:2] e8 | 
[V:3] c2BAB4 | 
[V:4] E,8 | 
[V:1] A4A4- | 
[V:2] c3BA2G2 | 
[V:3] A4A4- | 
[V:4] F,6E,2 | 
[V:1] A2Bcd4 | 
[V:2] F2E2D4 | 
[V:3] A4^G4 | 
[V:4] D,2C,2B,,4 | 
[V:1] c6A2- | 
[V:2] E4z4 | 
[V:3] A8 | 
[V:4] A,,4z2D,2 | 
[V:1] A2GFA2G2 | 
[V:2] z8 | 
[V:3] z4A4 | 
[V:4] F,6E,2 | 
[V:1] F2E2D4 | 
[V:2] z8 | 
[V:3] d8 | 
[V:4] D,2C,2B,,4 | 
[V:1] E8 | 
[V:2] A4A4 | 
[V:3] c6B2 | 
[V:4] A,,8- | 
[V:1] z4c4- | 
[V:2] c6B2 | 
[V:3] A2G2F4 | 
[V:4] A,,8- | 
[V:1] c2A4GF | 
[V:2] A3GF2E2 | 
[V:3] E4z2A2 | 
[V:4] A,,8- | 
[V:1] E2A4G2 | 
[V:2] A3Bcded | 
[V:3] c6B2 | 
[V:4] A,,8 | 
[V:1] F2E3DD2 | 
[V:2] cBB4A2 | 
[V:3] A2G2F4 | 
[V:4] z8 | 
[V:1] E8- | 
[V:2] B4z2B2 | 
[V:3] E8- | 
[V:4] z8 | 
[V:1] E8 | 
[V:2] c4c4 | 
[V:3] E8 | 
[V:4] A,,4A,,4 | 
[V:1] z8 | 
[V:2] d6cB | 
[V:3] z8 | 
[V:4] B,,4D,4- | 
[V:1] z8 | 
[V:2] A2d2c2B2- | 
[V:3] z8 | 
[V:4] D,2C,B,,A,,2D,2- | 
[V:1] z4B4 | 
[V:2] BAA4^G2 | 
[V:3] z8 | 
[V:4] D,A,,C,2B,,4 | 
[V:1] c4c4 | 
[V:2] A8 | 
[V:3] z4A4 | 
[V:4] A,,8 | 
[V:1] d3cB4 | 
[V:2] z8 | 
[V:3] B4d4- | 
[V:4] z8 | 
[V:1] A4z2A2 | 
[V:2] z8 | 
[V:3] d4c4 | 
[V:4] D,4F,4- | 
[V:1] d8 | 
[V:2] d4d4 | 
[V:3] A8 | 
[V:4] F,2E,2D,2C,B,, | 
[V:1] c6BA | 
[V:2] e8 | 
[V:3] z4c4- | 
[V:4] A,,8 | 
[V:1] G2A3^GG2 | 
[V:2] e8 | 
[V:3] c4B4 | 
[V:4] C,3D,E,4 | 
[V:1] A2E4A2- | 
[V:2] c3de2f2 | 
[V:3] A3Bc2d2 | 
[V:4] A,,2A,4D,2 | 
[V:1] A^GG2A2E2- | 
[V:2] e4c3d | 
[V:3] B4A4- | 
[V:4] E,4A,,3B,, | 
[V:1] E2A4G2 | 
[V:2] e2f4e2 | 
[V:3] A4A4 | 
[V:4] C,2D,2F,2C,2 | 
[V:1] F2E2F2D2 | 
[V:2] d2c2d2A2 | 
[V:3] A8 | 
[V:4] D,2A,,2D,4 | 
[V:1] F6E2 | 
[V:2] d6c2 | 
[V:3] z4A4- | 
[V:4] D,6A,,2 | 
[V:1] E4z4 | 
[V:2] c8 | 
[V:3] A8- | 
[V:4] A,,8 | 
[V:1] z8 | 
[V:2] c4c3d | 
[V:3] A4A4 | 
[V:4] A,,8 | 
[V:1] z4A4- | 
[V:2] e2e4d2 | 
[V:3] G3EF4 | 
[V:4] C,4D,4 | 
[V:1] A4A4 | 
[V:2] e8 | 
[V:3] E8 | 
[V:4] A,,8 | 
[V:1] G3EF4 | 
[V:2] e4c3d | 
[V:3] z4A4- | 
[V:4] z8 | 
[V:1] E4c4- | 
[V:2] e6A2 | 
[V:3] A4A4 | 
[V:4] A,,6A,,2 | 
[V:1] c2c2c4- | 
[V:2] A8 | 
[V:3] F2E2F4 | 
[V:4] A,,8 | 
[V:1] c2BAG4- | 
[V:2] z8 | 
[V:3] E4z4 | 
[V:4] C,3D,E,2F,2 | 
[V:1] G4z2E2 | 
[V:2] z8 | 
[V:3] E4G4- | 
[V:4] G,4C,4- | 
[V:1] G2A2B2c2 | 
[V:2] z8 | 
[V:3] G2E2G2A2 | 
[V:4] C,4G,4- | 
[V:1] d4c4- | 
[V:2] z8 | 
[V:3] B4c4 | 
[V:4] G,4A,4 | 
[V:1] c2B2B4 | 
[V:2] z4G4 | 
[V:3] d8 | 
[V:4] G,8 | 
[V:1] c8 | 
[V:2] A2G3^F^F2 | 
[V:3] c4z4 | 
[V:4] C,3B,,A,,4 | 
[V:1] z4B4 | 
[V:2] G8 | 
[V:3] d8 | 
[V:4] G,,8 | 
[V:1] B4A4 | 
[V:2] G4F4 | 
[V:3] d8 | 
[V:4] z4D,4 | 
[V:1] B4c3B | 
[V:2] G6E2 | 
[V:3] d4e4- | 
[V:4] G,,4C,3D, | 
[V:1] BAc4BA | 
[V:2] E8 | 
[V:3] e4e4- | 
[V:4] E,2A,,3B,,C,D, | 
[V:1] G8 | 
[V:2] z4G3A | 
[V:3] e4e3d | 
[V:4] E,4E,3F, | 
[V:1] z8 | 
[V:2] B2c4BA | 
[V:3] dce4dc | 
[V:4] G,2C,3D,E,F, | 
[V:1] z4B4 | 
[V:2] G4d4 | 
[V:3] B8 | 
[V:4] G,4G,4 | 
[V:1] c3BBAc2- | 
[V:2] c3BG2A2 | 
[V:3] e8 | 
[V:4] C,3D,E,2A,,2- | 
[V:1] c2BAG2A2 | 
[V:2] E6F2 | 
[V:3] e4e4 | 
[V:4] A,,B,,C,D,E,2C,2 | 
[V:1] B2c2d2B2 | 
[V:2] G2A2B4 | 
[V:3] d8 | 
[V:4] B,,8 | 
[V:1] c4B4- | 
[V:2] E4G4 | 
[V:3] e8 | 
[V:4] A,,4E,4 | 
[V:1] B2A2A4- | 
[V:2] A4F4 | 
[V:3] c4d4 | 
[V:4] F,4D,4 | 
[V:1] A4^G4 | 
[V:2] E4G4 | 
[V:3] B8 | 
[V:4] E,8 | 
[V:1] A8- | 
[V:2] F2E2F4 | 
[V:3] A8- | 
[V:4] A,,8- | 
[V:1] A8 ||  
[V:2] E8 ||  
[V:3] A8 ||  
[V:4] A,,8 ||  
[V:1]  [K:C] [K:clef=treble][M:2/1]E8 | 
[V:2]  [K:C] [K:clef=treble-8][M:2/1]z8 | 
[V:3]  [K:C] [K:clef=treble-8][M:2/1]z8 | 
[V:4]  [K:C] [K:clef=bass][M:2/1]z8 | 
[V:1] F6ED | 
[V:2] z8 | 
[V:3] z8 | 
[V:4] z8 | 
[V:1] E4D4 | 
[V:2] z8 | 
[V:3] A4B4- | 
[V:4] z8 | 
[V:1] z2G3^FF2 | 
[V:2] z8 | 
[V:3] B2AGA4 | 
[V:4] z8 | 
[V:1] G6FE | 
[V:2] z8 | 
[V:3] G3AB2c2- | 
[V:4] z8 | 
[V:1] D2G4E2- | 
[V:2] z8 | 
[V:3] cBB2c4- | 
[V:4] z8 | 
[V:1] E2A4G2- | 
[V:2] e8 | 
[V:3] c4c4- | 
[V:4] z8 | 
[V:1] G2c3BB2 | 
[V:2] e4f4 | 
[V:3] c4d4 | 
[V:4] z8 | 
[V:1] c2BAG2c2- | 
[V:2] g4e2a2- | 
[V:3] c8 | 
[V:4] z8 | 
[V:1] c2B2A4 | 
[V:2] a2g2f4 | 
[V:3] z4c4 | 
[V:4] F,8 | 
[V:1] G6A2- | 
[V:2] e4z2e2 | 
[V:3] c4c4 | 
[V:4] C,8 | 
[V:1] A2G2F4 | 
[V:2] f2e2d4 | 
[V:3] A8- | 
[V:4] D,8 | 
[V:1] E6F2- | 
[V:2] c8 | 
[V:3] A8 | 
[V:4] A,,8 | 
[V:1] F2E2D4 | 
[V:2] d4d4 | 
[V:3] D4D4 | 
[V:4] B,,8 | 
[V:1] C8 | 
[V:2] e8- | 
[V:3] A8- | 
[V:4] A,,8 | 
[V:1] z4c4 | 
[V:2] e8 | 
[V:3] A8 | 
[V:4] z8 | 
[V:1] B2G2A4 | 
[V:2] z4f4 | 
[V:3] z8 | 
[V:4] z8 | 
[V:1] G2E2F4 | 
[V:2] e2c2d4 | 
[V:3] z8 | 
[V:4] z8 | 
[V:1] E3FGFED | 
[V:2] c2A2B4 | 
[V:3] z8 | 
[V:4] z8 | 
[V:1] C8 | 
[V:2] A8 | 
[V:3] z4A4- | 
[V:4] A,,8 | 
[V:1] z8 | 
[V:2] f4e2c2 | 
[V:3] A4A4 | 
[V:4] D,4C,4 | 
[V:1] z8 | 
[V:2] d4c2A2 | 
[V:3] A4G2E2 | 
[V:4] F,4E,2C,2 | 
[V:1] z8 | 
[V:2] B4A2A2- | 
[V:3] F4E2E2- | 
[V:4] D,4C,2A,,2 | 
[V:1] z8 | 
[V:2] A^G^G2A2B2 | 
[V:3] E2D2E4 | 
[V:4] B,,4A,,4- | 
[V:1] z4E4- | 
[V:2] c2d2e4 | 
[V:3] A4G4 | 
[V:4] A,,2B,,2C,2D,2 | 
[V:1] E2F2G2A2 | 
[V:2] z4e4- | 
[V:3] E6F2 | 
[V:4] E,8- | 
[V:1] B4E4 | 
[V:2] e4e4 | 
[V:3] G2A2B4 | 
[V:4] E,8- | 
[V:1] z4B4- | 
[V:2] e8- | 
[V:3] E4G4- | 
[V:4] E,8 | 
[V:1] B4c4 | 
[V:2] e8 | 
[V:3] G4A4 | 
[V:4] z8 | 
[V:1] d4dcBA | 
[V:2] d4d4 | 
[V:3] B6E2 | 
[V:4] z8 | 
[V:1] G2A2c2B2- | 
[V:2] e6dc | 
[V:3] E8- | 
[V:4] z8 | 
[V:1] B2A3^GG2 | 
[V:2] dcBAB4 | 
[V:3] E8 | 
[V:4] z8 | 
[V:1] A8 | 
[V:2] A8 | 
[V:3] z4E4 | 
[V:4] A,,8 | 
[V:1] z8 | 
[V:2] z8 | 
[V:3] F2E4A2- | 
[V:4] A,,4A,,4 | 
[V:1] z8 | 
[V:2] z8 | 
[V:3] A2G2c4 | 
[V:4] B,,4A,,4 | 
[V:1] z8 | 
[V:2] z8 | 
[V:3] B2c4BA | 
[V:4] E,8 | 
[V:1] z8 | 
[V:2] z8 | 
[V:3] G2B2A4 | 
[V:4] E,4F,4 | 
[V:1] z8 | 
[V:2] z8 | 
[V:3] G2c2d2e2- | 
[V:4] E,2F,4E,D, | 
[V:1] z8 | 
[V:2] z4d4 | 
[V:3] edc4B2 | 
[V:4] C,2E,2D,4 | 
[V:1] z4G4 | 
[V:2] e4edcB | 
[V:3] c8 | 
[V:4] C,8 | 
[V:1] A4AGFE | 
[V:2] A4c4 | 
[V:3] z8 | 
[V:4] z8 | 
[V:1] D4F4 | 
[V:2] B4A2d2- | 
[V:3] z8 | 
[V:4] z8 | 
[V:1] E4D2G2- | 
[V:2] dBcdB2e2- | 
[V:3] z8 | 
[V:4] z8 | 
[V:1] GEFGE2A2- | 
[V:2] ecdec4 | 
[V:3] z4z2c2- | 
[V:4] z8 | 
[V:1] AFGAF2G2- | 
[V:2] z8 | 
[V:3] cABcA2G2 | 
[V:4] z8 | 
[V:1] GFE4D2 | 
[V:2] z8 | 
[V:3] A2E2F4 | 
[V:4] z8 | 
[V:1] E8 | 
[V:2] c3BG2A2 | 
[V:3] E8 | 
[V:4] C,6C,2 | 
[V:1] z8 | 
[V:2] GFG2A4 | 
[V:3] z4E4- | 
[V:4] B,,4A,,4 | 
[V:1] E6E2 | 
[V:2] E8 | 
[V:3] E2F2G2A2- | 
[V:4] C,8 | 
[V:1] D4C4 | 
[V:2] z8 | 
[V:3] A^G^G2A4 | 
[V:4] B,,4A,,4 | 
[V:1] G3AB2c2 | 
[V:2] e6c2 | 
[V:3] B6A2 | 
[V:4] E,3F,G,2A,2 | 
[V:1] B2A3^GG2 | 
[V:2] gfede4 | 
[V:3] dcBAB4 | 
[V:4] G,2A,2E,4 | 
[V:1] A4F4- | 
[V:2] c4d4- | 
[V:3] A8- | 
[V:4] A,,4D,4- | 
[V:1] F2F2F4 | 
[V:2] d2d2c4- | 
[V:3] A8 | 
[V:4] D,4F,4 | 
[V:1] E4D4 | 
[V:2] c2def4 | 
[V:3] z4A4- | 
[V:4] C,4D,4 | 
[V:1] C4z2G2- | 
[V:2] e8 | 
[V:3] A2A2G4 | 
[V:4] A,,4E,4 | 
[V:1] GFF2G2E2 | 
[V:2] c2f2e4 | 
[V:3] A4G4 | 
[V:4] z2D,2E,2C,2 | 
[V:1] F2D2E4 | 
[V:2] d4z4 | 
[V:3] z2F2G2A2- | 
[V:4] D,4C,3B,, | 
[V:1] D2B,2C4 | 
[V:2] z8 | 
[V:3] A2G4^F2 | 
[V:4] B,,2G,,2A,,4 | 
[V:1] B,4z4 | 
[V:2] z2G4F2 | 
[V:3] G4c4 | 
[V:4] G,,2B,,2A,,4 | 
[V:1] z4c4 | 
[V:2] G2B2c3d | 
[V:3] B2G2A3G | 
[V:4] G,,2G,3F,F,2 | 
[V:1] B2G2A3G | 
[V:2] e4f3e | 
[V:3] E4z2A2- | 
[V:4] G,4z4 | 
[V:1] E2A6 | 
[V:2] c2f3ecd | 
[V:3] A2A2c4- | 
[V:4] z4F,4 | 
[V:1] G2E2F4- | 
[V:2] e4d4 | 
[V:3] c4A4- | 
[V:4] E,2C,2D,3C, | 
[V:1] F2E2E4- | 
[V:2] c6B2 | 
[V:3] A2G2F2E2 | 
[V:4] A,,4C,4 | 
[V:1] E2D2D4 | 
[V:2] A6B2 | 
[V:3] F8 | 
[V:4] D,8 | 
[V:1] E8- | 
[V:2] c4B4- | 
[V:3] E8- | 
[V:4] z4G,,4 | 
[V:1] E8- | 
[V:2] B2A2A4 | 
[V:3] E8- | 
[V:4] A,,8 | 
[V:1] E8 |]  
[V:2] B8 |]  
[V:3] E8 |]  
[V:4] E,,8 |]  



